X:1
T: Drive Home the Mainlanders
C:
R:Reel
Q: 232
K:Bm
M:4/4
L:1/8
|:b|B1/2B1/2B g2 BB dB|cA ec fA ec|B1/2B1/2B g2 BB dB|cA ec B1/2B1/2B Bb|
B1/2B1/2B g2 BB dB|cA ec fA ec|B1/2B1/2B g2 BB dB|cA ec B1/2B1/2B Ba|
B1/2B1/2B dB fB dB|ca ea eA cA|Bc dB fB dB|cA ec B1/2B1/2B Ba|
B1/2B1/2B dB fB dB|ca ea eA cA|Bc dB fB dB|cA ec B1/2B1/2B B:|
